X:1
T:Dies Irae (Dykes), 888 D
T:Dies Irae (Dykes), 888 D
T:John Bacchus Dykes, 1861
T:Public Domain Courtesy of the Cyber Hymnal™
C:John Bacchus Dykes, 1861
Z:Public Domain
Z:Courtesy of the Cyber Hymnal™
%%score ( 1 2 ) ( 3 4 )
L:1/8
Q:1/4=107
M:4/4
K:F
V:1 treble 
V:2 treble 
V:3 bass 
V:4 bass 
V:1
 [DF]3 [DE] D2 [DE]2 | [DF]2 [DG]2 [DA]2 D2 | [DB]2 [EB]2 [A,A]2 D2 | G2 [DF]2 [^CE]2 [D^F]2 | %4
 [DG]2 G2 [^CG]2 [DF]2 | [^CE]2 [DF]2 E2 !fermata!D2 | F3 z [_EB]3 [EA] | %7
 [_EG]2 [EA]2 [EB]2 [DF]2 | [B,F]2 [DB]2 [_EB]3 [EA] | [_EG]2 [EA]2 [DB]2 F2 | %10
!f! [Fd]2 [Ed]2 [Dd]3 D | [DE]2 [DG]2 ([DF-]4 | F2) E2 D4 |] %13
V:2
 x4 D2 x2 | x6 D2 | x6 D2 | (D^C) x6 | x2 (D^C) x4 | x4 (D^C) D2 | D2 (D2 B) x3 | x8 | x8 | x6 F2 | %10
 x7 D | x8 | ^C4 D4 |] %13
V:3
 [D,A,]3 [D,G,] [D,F,]2 [D,G,]2 | [D,A,]2 [D,B,]2 [F,A,]2 [F,A,]2 | %2
 [G,B,]2 [G,B,]2 [F,D]2 [F,A,]2 | [E,B,]2 A,2 A,2 [D,A,]2 | [G,B,]2 (G,F,) [A,,E,]2 (F,G,) | %5
 [A,,A,]2 A,2 (G,E,) !fermata![D,F,]2 | [D,A,]2 [B,,B,]2 [F,,C]3 [F,C] | %7
 [F,B,]2 [F,C]2 [B,,B,]2 [B,,B,]2 | [F,D]2 [F,B,]2 [F,C]3 [F,C] | [F,B,]2 [F,C]2 [B,,B,]2 [B,,D]2 | %10
 [B,D]2 [G,B,]2 [G,B,]3 [G,B,] | [G,B,]2 [G,,B,]2 A,2 F,2 | [A,,G,]4 [D,F,]4 |] %13
V:4
 x8 | x8 | x8 | x2 (F,G,) A,2 x2 | x2 A,,2 x A,,2 x | x2 (F,,G,,) A,,2 x2 | x8 | x8 | x8 | x8 | %10
 x8 | x4 A,,4- | x8 |] %13

